icons/midnadark/apps/32/preferences-desktop-accessibility.svg

<?xml version="1.0" encoding="UTF-8" standalone="no"?>
<!-- Created with Inkscape (http://www.inkscape.org/) -->

<svg
   xmlns:dc="http://purl.org/dc/elements/1.1/"
   xmlns:cc="http://creativecommons.org/ns#"
   xmlns:rdf="http://www.w3.org/1999/02/22-rdf-syntax-ns#"
   xmlns:svg="http://www.w3.org/2000/svg"
   xmlns="http://www.w3.org/2000/svg"
   xmlns:xlink="http://www.w3.org/1999/xlink"
   xmlns:sodipodi="http://sodipodi.sourceforge.net/DTD/sodipodi-0.dtd"
   xmlns:inkscape="http://www.inkscape.org/namespaces/inkscape"
   width="48"
   height="48"
   id="svg5453"
   version="1.1"
   inkscape:version="0.91 r13725"
   sodipodi:docname="preferences-desktop-accessibility.svg">
  <defs
     id="defs5455">
    <linearGradient
       id="linearGradient4422">
      <stop
         id="stop4424"
         offset="0"
         style="stop-color:#197ff1;stop-opacity:1" />
      <stop
         id="stop4426"
         offset="1"
         style="stop-color:#21c6fb;stop-opacity:1" />
    </linearGradient>
    <linearGradient
       id="linearGradient4232">
      <stop
         style="stop-color:#3889e9;stop-opacity:1"
         offset="0"
         id="stop4234-0" />
      <stop
         style="stop-color:#5ea5fb;stop-opacity:1"
         offset="1"
         id="stop4236" />
    </linearGradient>
    <linearGradient
       gradientUnits="userSpaceOnUse"
       y2="517.79797"
       x2="399.57144"
       y1="545.79797"
       x1="399.57144"
       id="linearGradient3426"
       xlink:href="#linearGradient4232"
       inkscape:collect="always" />
    <linearGradient
       y2="518.13873"
       x2="399.9939"
       y1="545.13873"
       x1="399.9939"
       gradientUnits="userSpaceOnUse"
       id="linearGradient4181"
       xlink:href="#linearGradient4422"
       inkscape:collect="always" />
  </defs>
  <sodipodi:namedview
     id="base"
     pagecolor="#ffffff"
     bordercolor="#666666"
     borderopacity="1.0"
     inkscape:pageopacity="0"
     inkscape:pageshadow="2"
     inkscape:zoom="4"
     inkscape:cx="-17.704198"
     inkscape:cy="15.968792"
     inkscape:document-units="px"
     inkscape:current-layer="g4370"
     showgrid="true"
     fit-margin-top="0"
     fit-margin-left="0"
     fit-margin-right="0"
     fit-margin-bottom="0"
     inkscape:window-width="1366"
     inkscape:window-height="633"
     inkscape:window-x="0"
     inkscape:window-y="33"
     inkscape:window-maximized="1"
     inkscape:showpageshadow="false"
     borderlayer="true"
     showguides="false">
    <inkscape:grid
       type="xygrid"
       id="grid4063" />
    <sodipodi:guide
       position="1.1650391e-05,32.000026"
       orientation="32,0"
       id="guide4157" />
    <sodipodi:guide
       position="1.1650391e-05,2.6367188e-05"
       orientation="0,32"
       id="guide4159" />
    <sodipodi:guide
       position="32.000012,2.6367188e-05"
       orientation="-32,0"
       id="guide4161" />
    <sodipodi:guide
       position="32.000012,32.000026"
       orientation="0,-32"
       id="guide4163" />
    <sodipodi:guide
       position="2.0000117,30.000026"
       orientation="28,0"
       id="guide4167" />
    <sodipodi:guide
       position="2.0000117,2.0000264"
       orientation="0,28"
       id="guide4169" />
    <sodipodi:guide
       position="30.000012,2.0000264"
       orientation="-28,0"
       id="guide4171" />
    <sodipodi:guide
       position="30.000012,30.000026"
       orientation="0,-28"
       id="guide4173" />
    <sodipodi:guide
       position="2.0000117,30.000026"
       orientation="28,0"
       id="guide4181" />
    <sodipodi:guide
       position="2.0000117,2.0000264"
       orientation="0,14"
       id="guide4183" />
    <sodipodi:guide
       position="16.000012,2.0000264"
       orientation="-28,0"
       id="guide4185" />
    <sodipodi:guide
       position="16.000012,30.000026"
       orientation="0,-14"
       id="guide4187" />
    <sodipodi:guide
       position="9.0000117,23.000026"
       orientation="14,0"
       id="guide4193" />
    <sodipodi:guide
       position="9.0000117,9.0000264"
       orientation="0,14.000031"
       id="guide4195" />
    <sodipodi:guide
       position="23.000042,9.0000264"
       orientation="-14,0"
       id="guide4197" />
    <sodipodi:guide
       position="23.000042,23.000026"
       orientation="0,-14.000031"
       id="guide4199" />
  </sodipodi:namedview>
  <metadata
     id="metadata5458">
    <rdf:RDF>
      <cc:Work
         rdf:about="">
        <dc:format>image/svg+xml</dc:format>
        <dc:type
           rdf:resource="http://purl.org/dc/dcmitype/StillImage" />
        <dc:title />
      </cc:Work>
    </rdf:RDF>
  </metadata>
  <g
     inkscape:label="Capa 1"
     inkscape:groupmode="layer"
     id="layer1"
     transform="translate(-384.57143,-499.798)">
    <g
       style="display:inline;enable-background:new"
       id="g4238"
       transform="translate(225.81911,462.44565)">
      <g
         style="display:inline"
         id="layer1-8"
         transform="matrix(0.22655187,0,0,0.22655187,106.94841,54.31088)">
        <g
           style="display:none"
           id="layer6" />
        <g
           id="g4027" />
        <g
           id="g4061" />
        <g
           id="g3751" />
        <g
           id="g3782" />
        <g
           id="g3725" />
        <g
           id="g4370"
           transform="matrix(4.4140002,0,0,4.4140002,59.275211,39.357303)">
          <g
             id="g4182"
             transform="matrix(1.7142857,0,0,1.7142857,-30.839285,-12.375017)">
            <g
               inkscape:label="Capa 1"
               id="layer1-1"
               transform="translate(-346.19643,-525.67299)"
               style="display:inline;enable-background:new">
              <g
                 id="layer1-9"
                 inkscape:label="Capa 1"
                 transform="matrix(0.87499998,0,0,0.87499998,50.025937,66.450093)">
                <g
                   transform="matrix(1.1428581,0,0,1.1428581,-57.327415,-75.995025)"
                   id="g4284">
                  <g
                     id="layer1-3"
                     inkscape:label="Capa 1"
                     transform="translate(0.13524268,0.04517549)"
                     style="stroke:none;stroke-width:1.29999995;stroke-miterlimit:4;stroke-dasharray:none;stroke-opacity:1">
                    <circle
                       r="13.999958"
                       cy="531.79791"
                       cx="400.57138"
                       id="path3377"
                       style="opacity:1;fill:url(#linearGradient4181);fill-opacity:1;stroke:none;stroke-width:1.29999995;stroke-miterlimit:4;stroke-dasharray:none;stroke-dashoffset:0;stroke-opacity:1" />
                    <circle
                       style="opacity:1;fill:#5ea5fb;fill-opacity:0;stroke:none;stroke-width:1.29999995;stroke-miterlimit:4;stroke-dasharray:none;stroke-dashoffset:0;stroke-opacity:1"
                       id="circle4174"
                       cx="400.57144"
                       cy="531.79797"
                       r="13.999958" />
                    <circle
                       style="opacity:1;fill:url(#linearGradient3426);fill-opacity:1;stroke:none;stroke-width:1.29999995;stroke-miterlimit:4;stroke-dasharray:none;stroke-dashoffset:0;stroke-opacity:1"
                       id="ellipse4233"
                       cx="400.57138"
                       cy="531.79791"
                       r="0" />
                  </g>
                </g>
              </g>
            </g>
            <path
               style="display:inline;fill:#ffffff;fill-opacity:0.85204091;stroke:none;enable-background:new"
               id="path6668"
               inkscape:connector-curvature="0"
               d="m 56.311671,0.45712184 c 0,1.01133336 -0.828432,1.83212546 -1.849178,1.83212546 -1.020749,0 -1.84918,-0.8207921 -1.84918,-1.83212546 0,-1.01133169 0.828431,-1.83212464 1.84918,-1.83212464 1.020746,0 1.849178,0.82079295 1.849178,1.83212464 z m 4.615295,1.94814386 c -0.08553,0.013727 -0.166343,0.047149 -0.235608,0.097499 L 54.374806,3.4786813 48.092274,2.489305 C 47.929871,2.3726024 47.701539,2.3376554 47.520071,2.424302 c -0.181466,0.086644 -0.30043,0.2920033 -0.302931,0.4874171 -0.0023,0.1954407 0.123719,0.363988 0.302931,0.4549286 l 4.922978,1.5473045 -0.03367,3.5520882 -1.737119,5.3198866 c -0.167306,0.242246 -0.116307,0.553358 0.134637,0.714858 0.250961,0.161522 0.606847,0.112306 0.774171,-0.12996 l 2.80336,-5.7422993 2.750444,5.7323753 c 0.148725,0.251261 0.480249,0.338544 0.740505,0.19497 0.260256,-0.143569 0.350676,-0.463618 0.201956,-0.714881 L 56.372462,8.4982167 56.305155,5.154166 61.297207,3.3476196 C 61.498902,3.2110691 61.586526,2.9525632 61.499167,2.7302315 61.411799,2.5078754 61.171706,2.3783276 60.926951,2.40527 l 1.8e-5,0 z" />
          </g>
        </g>
      </g>
    </g>
  </g>
</svg>

<svg xmlns="http://www.w3.org/2000/svg" viewBox="0 0 48 48"><defs><linearGradient gradientUnits="userSpaceOnUse" y2="517.8" x2="0" y1="545.8"><stop stop-color="#3889e9"/><stop offset="1" stop-color="#5ea5fb"/></linearGradient><linearGradient y2="518.14" x2="0" y1="545.14" gradientUnits="userSpaceOnUse" id="0"><stop stop-color="#197ff1"/><stop offset="1" stop-color="#21c6fb"/></linearGradient></defs><g transform="matrix(1.71427 0 0 1.71427-69.21 13.512)" enable-background="new"><g transform="translate(-346.19-525.67)"><circle r="14" cy="531.8" cx="400.57" fill="url(#0)"/><circle cx="400.57" cy="531.8" r="14" fill="#5ea5fb" fill-opacity="0"/></g><path d="m56.31.457c0 1.011-.828 1.832-1.849 1.832-1.021 0-1.849-.821-1.849-1.832 0-1.011.828-1.832 1.849-1.832 1.021 0 1.849.821 1.849 1.832m4.615 1.948c-.086.014-.166.047-.236.097l-6.317.976-6.283-.989c-.162-.117-.391-.152-.572-.065-.181.087-.3.292-.303.487-.002.195.124.364.303.455l4.923 1.547-.034 3.552-1.737 5.32c-.167.242-.116.553.135.715.251.162.607.112.774-.13l2.803-5.742 2.75 5.732c.149.251.48.339.741.195.26-.144.351-.464.202-.715l-1.705-5.343-.067-3.344 4.992-1.807c.202-.137.289-.395.202-.617-.087-.222-.327-.352-.572-.325" fill="#fff" fill-opacity=".852"/></g></svg>
